assets/Playground slide/Flat/playground_slide_flat.svg

<svg width="32" height="32" viewBox="0 0 32 32" fill="none" xmlns="http://www.w3.org/2000/svg">
<path d="M10.9843 28.9999L10.9843 13.4186L9.48434 13V14.0469L2.76562 14.0469V16.0625L9.48434 16.0625L9.48434 19.0156L2.76562 19.0156V21.0312L9.48435 21.0312L9.48435 23.9844L2.76562 23.9844V26L9.48435 26L9.48435 28.9999H10.9843Z" fill="#990838"/>
<path d="M16.2416 11.4078C15.6072 9.94591 14.5936 8.5 13 8.5L12 9H9.66149L8.90947 8.70364L8.1658 9H7.22995L6.56149 8.70364L5.88467 9H5.11011L9.36916 18.2542C9.85886 19.3183 10.9231 19.0625 12.0944 19.0625C13.2657 19.0625 14.4651 19.8609 14.787 20.6014L18.4375 28.9999H29.0818L24.8232 19.7599C24.3332 18.6967 22.8643 17.602 21.6936 17.602H19.9174C19.519 17.602 19.1586 17.3655 19 17L16.2416 11.4078Z" fill="#A7A8B7"/>
<path d="M5.84375 9V5.67188C5.84375 5.02467 5.31908 4.5 4.67188 4.5C4.02467 4.5 3.5 5.02467 3.5 5.67187V9H2V5.67187C2 4.19624 3.19624 3 4.67188 3C6.14751 3 7.34375 4.19624 7.34375 5.67188V9H5.84375Z" fill="#26C9FC"/>
<path d="M9.75 18C9.75 18 13.5625 18.9453 14.25 20C18.0703 20 24.9449 20 24.9449 20L24.8342 19.7599C24.3442 18.6967 23.2804 18.0156 22.1097 18.0156C17.9898 18.0156 13.8699 18 9.75 18Z" fill="white"/>
<path d="M28.3484 29L24.0884 19.7599C23.5983 18.6967 22.5345 18.0156 21.3638 18.0156H19.5876C19.1892 18.0156 18.8288 17.7791 18.6702 17.4137L16.0643 11.4078C15.43 9.94591 13.9884 9 12.3948 9H12.0312V7.5H12.3948C14.586 7.5 16.5681 8.80063 17.4403 10.8107L19.9157 16.5156H21.3638C23.1199 16.5156 24.7156 17.5372 25.4506 19.1321L30 29H28.3484ZM3.5 9.29338C4.45288 9.68024 5.24044 10.4282 5.66551 11.4078L8.93144 18.9137C9.09002 19.2791 9.45041 19.5156 9.8488 19.5156H11.625C12.7957 19.5156 14.0568 20.6868 14.5469 21.75L17.9496 29H19.6012L15.9092 21.1221C15.1741 19.5273 13.3811 18 11.625 18H10.1769L7.04155 10.8107C6.37248 9.26874 5.05022 8.14426 3.4815 7.70414C2.68403 7.48041 2 8.17175 2 9L2 28.9999H3.5L3.5 9.29338Z" fill="#F92F60"/>
<path d="M8.16388 9H9.66388V5.67187C9.66388 5.02467 10.1885 4.5 10.8358 4.5C11.483 4.5 12.0076 5.02467 12.0076 5.67188V9H12.5721C12.9219 9.01953 13.2054 9.07966 13.5076 9.15234V5.67188C13.5076 4.19624 12.3114 3 10.8358 3C9.36012 3 8.16388 4.19624 8.16388 5.67187V9Z" fill="#00A6ED"/>
</svg>

<svg xmlns="http://www.w3.org/2000/svg" width="32" height="32" fill="none"><path fill="#990838" d="M10.984 29V13.419L9.484 13v1.047H2.766v2.015h6.718v2.954H2.766v2.015h6.718v2.953H2.766V26h6.718v3h1.5Z"/><path fill="#A7A8B7" d="M16.242 11.408C15.607 9.946 14.594 8.5 13 8.5L12 9H9.661l-.752-.296L8.166 9H7.23l-.669-.296L5.885 9H5.11l4.26 9.254c.489 1.064 1.553.808 2.724.808 1.172 0 2.371.799 2.693 1.54L18.437 29h10.645l-4.259-9.24c-.49-1.063-1.959-2.158-3.13-2.158h-1.776A1 1 0 0 1 19 17l-2.758-5.592Z"/><path fill="#26C9FC" d="M5.844 9V5.672a1.172 1.172 0 0 0-2.344 0V9H2V5.672a2.672 2.672 0 0 1 5.344 0V9h-1.5Z"/><path fill="#fff" d="M9.75 18s3.813.945 4.5 2h10.695l-.11-.24a3 3 0 0 0-2.725-1.744c-4.12 0-8.24-.016-12.36-.016Z"/><path fill="#F92F60" d="m28.348 29-4.26-9.24a3 3 0 0 0-2.724-1.744h-1.776a1 1 0 0 1-.918-.602l-2.606-6.006A4 4 0 0 0 12.394 9h-.363V7.5h.364a5.5 5.5 0 0 1 5.045 3.31l2.476 5.706h1.448a4.5 4.5 0 0 1 4.087 2.616L30 29h-1.652ZM3.5 9.293a4 4 0 0 1 2.166 2.115l3.265 7.506a1 1 0 0 0 .918.602h1.776c1.17 0 2.432 1.17 2.922 2.234L17.95 29H19.6l-3.692-7.878C15.174 19.527 13.381 18 11.625 18h-1.448l-3.135-7.19a5.5 5.5 0 0 0-3.56-3.106C2.683 7.48 2 8.172 2 9v20h1.5V9.293Z"/><path fill="#00A6ED" d="M8.164 9h1.5V5.672a1.172 1.172 0 1 1 2.344 0V9h.564c.35.02.633.08.936.152v-3.48a2.672 2.672 0 1 0-5.344 0V9Z"/></svg>
